!!!OTL: Verschlafener Jaeger Es wollt ein Jaegerli jagen
!!!ARE: Europa, Mitteleuropa, Schweiz
!!!YOR: 7, S. 215
!!    ????
!!!SCT: Q0152J
!!!YEM: Copyright 1995, estate of Helmut Schaffrath.
**kern
*ICvox
*Ivox
*M6/8
*k[f#]
*G:
{8d
=1
4g
8g
8.b
16a
8g
=2
4f#
8g
4a}
{8d
=3
8.g
16a
8g
8b
8a
8g
=4
4f#
8g
4a}
{16b
16cc
=5
8.dd
16b
8g
8g
8f#
8g
=6
4a
8f#
4d}
{16b
16cc
=7
8.dd
16b
8g
8.a
16g
8f#
=8
4g
4.r}
==
!!!AGN: Ballade, Verfuehrung, Versagen, Spott
!!!ONB: ESAC (Essen Associative Code) Database: BALLADE
!!!AMT: compound duple
!!!AIN: vox
!!!EED: Helmut Schaffrath
!!!EEV: 1.0
*-
